src/assets/outline/Sms.svg

<svg width="24" height="24" viewBox="0 0 24 24"  xmlns="http://www.w3.org/2000/svg">
<path d="M17 21.25H7C3.35 21.25 1.25 19.15 1.25 15.5V8.5C1.25 4.85 3.35 2.75 7 2.75H17C20.65 2.75 22.75 4.85 22.75 8.5V15.5C22.75 19.15 20.65 21.25 17 21.25ZM7 4.25C4.14 4.25 2.75 5.64 2.75 8.5V15.5C2.75 18.36 4.14 19.75 7 19.75H17C19.86 19.75 21.25 18.36 21.25 15.5V8.5C21.25 5.64 19.86 4.25 17 4.25H7Z" />
<path d="M11.9998 12.87C11.1598 12.87 10.3098 12.61 9.65978 12.08L6.52978 9.57997C6.20978 9.31997 6.14978 8.84997 6.40978 8.52997C6.66978 8.20997 7.13978 8.14997 7.45978 8.40997L10.5898 10.91C11.3498 11.52 12.6398 11.52 13.3998 10.91L16.5298 8.40997C16.8498 8.14997 17.3298 8.19997 17.5798 8.52997C17.8398 8.84997 17.7898 9.32997 17.4598 9.57997L14.3298 12.08C13.6898 12.61 12.8398 12.87 11.9998 12.87Z" />
</svg>

<?xml version="1.0" encoding="UTF-8"?>
<svg width="24" height="24" viewBox="0 0 24 24" xmlns="http://www.w3.org/2000/svg">
 <path d="m17 21.25h-10c-3.65 0-5.75-2.1-5.75-5.75v-7c0-3.65 2.1-5.75 5.75-5.75h10c3.65 0 5.75 2.1 5.75 5.75v7c0 3.65-2.1 5.75-5.75 5.75zm-10-17c-2.86 0-4.25 1.39-4.25 4.25v7c0 2.86 1.39 4.25 4.25 4.25h10c2.86 0 4.25-1.39 4.25-4.25v-7c0-2.86-1.39-4.25-4.25-4.25h-10z"/>
 <path d="m12 12.87c-0.84 0-1.69-0.26-2.34-0.79l-3.13-2.5c-0.32-0.26-0.38-0.73-0.12-1.05s0.73-0.38 1.05-0.12l3.13 2.5c0.76 0.61 2.05 0.61 2.81 0l3.13-2.5c0.32-0.26 0.8-0.21 1.05 0.12 0.26 0.32 0.21 0.8-0.12 1.05l-3.13 2.5c-0.64 0.53-1.49 0.79-2.33 0.79z"/>
</svg>
